X:1
T:Title
%%score { ( 1 3 ) | 2 }
L:1/8
Q:1/4=92
M:6/8
K:Ab
V:1 treble nm="Grand Piano"
V:3 treble 
V:2 bass 
V:1
 [CE]>[CE][CE] [CE][CE][CE] | [DF]2 [DF] [CE]2 [EA] | B>BB BAB | [Ec]6 | %4
w: S.~J.~Vail * * * * *||||
 [Fd][Fd][Fd] [Fd][Ec][EB] | [Ec]2 [Ec] [Ec]3 | ccc cBA | [=EG]2 [EG] [EG]3 | FFF [FA][EG][DF] | %9
w: |||||
 [CE]2 [A,C] [CE]3 | FFF EAB |[M:15/16] c->cB[A,CA]3/2- [A,CA]3 |[M:3/4] cc c[Ec] [Fd][Ec] | %13
w: ||||
 [DB]6 | BB BB cB | [CA]6 | FF F[FA] [EG][DF] | [CE]2 [A,C] [CE]2 [EA] | %18
w: |||||
[M:13/16] [FB][FB][FB]Bc3/2B |[M:3/4] [CA]6 |] %20
w: ||
V:2
 [A,,A,]>[A,,A,][A,,A,] [A,,A,][A,,A,][A,,A,] | [A,,A,]2 [A,,A,] [A,,A,]2 [B,,A,] | %2
 [E,G,D]>[E,G,D][E,G,D] [E,G,D][E,A,C][E,G,E] | [A,,A,]6 | [D,A,][D,A,][D,A,] [D,A,][E,A,][E,G,] | %5
 [A,,A,]2 [A,,A,] [A,,A,]3 | [F,A,F][F,A,F][F,A,F] [F,A,F][F,A,F][F,CF] | [C,C]2 [C,C] [C,C]3 | %8
 [D,A,][D,A,D][D,A,D] [D,A,][D,A,][D,A,] | [A,,A,]2 [A,,E,] [A,,A,]3 | %10
 [D,A,D][D,A,D][D,A,D] [E,A,C][E,A,C][E,A,D] |[M:15/16] [E,A,E]->[E,A,E][E,G,D]A,,3/2- A,,3 | %12
[M:3/4] EE E[A,,A,] [A,,A,][A,,A,] | [E,G,]E, E, .E,3 | DD D[E,G,D] [E,G,E][E,G,D] | %15
 [A,,A,]A,, A,, .A,,3 | [D,A,D][D,A,D] [D,A,D][D,A,] [D,A,][D,A,] | %17
 [A,,A,]2 [A,,E,] [A,,A,]2 [C,A,] |[M:13/16] [D,A,][D,A,][D,A,][E,G,E][E,G,E]3/2[E,G,D] | %19
[M:3/4] [A,,A,]6 |] %20
V:3
 x6 | x6 | x6 | x6 | x6 | x6 | x6 | x6 | x6 | x6 | x6 |[M:15/16] x15/2 |[M:3/4] x6 | z G, G, .G,3 | %14
 x6 | z A, A, .A,3 | x6 | x6 |[M:13/16] x13/2 |[M:3/4] x6 |] %20

